; generated by PrusaSlicer 2.6.1+win64 on 2023-09-26 at 15:40:57 UTC


;
;
; 

; external perimeters extrusion width = 0.25mm
; perimeters extrusion width = 0.25mm
; infill extrusion width = 0.25mm
; solid infill extrusion width = 0.25mm
; top infill extrusion width = 0.25mm
; first layer extrusion width = 0.30mm

; external perimeters extrusion width = 0.25mm
; perimeters extrusion width = 0.25mm
; infill extrusion width = 0.25mm
; solid infill extrusion width = 0.25mm
; top infill extrusion width = 0.25mm
; first layer extrusion width = 0.30mm

; external perimeters extrusion width = 0.25mm
; perimeters extrusion width = 0.25mm
; infill extrusion width = 0.25mm
; solid infill extrusion width = 0.25mm
; top infill extrusion width = 0.25mm
; first layer extrusion width = 0.30mm

; external perimeters extrusion width = 0.25mm
; perimeters extrusion width = 0.25mm
; infill extrusion width = 0.25mm
; solid infill extrusion width = 0.25mm
; top infill extrusion width = 0.25mm
; first layer extrusion width = 0.30mm

; external perimeters extrusion width = 0.25mm
; perimeters extrusion width = 0.25mm
; infill extrusion width = 0.25mm
; solid infill extrusion width = 0.25mm
; top infill extrusion width = 0.25mm
; first layer extrusion width = 0.30mm

; external perimeters extrusion width = 0.25mm
; perimeters extrusion width = 0.25mm
; infill extrusion width = 0.25mm
; solid infill extrusion width = 0.25mm
; top infill extrusion width = 0.25mm
; first layer extrusion width = 0.30mm

; external perimeters extrusion width = 0.25mm
; perimeters extrusion width = 0.25mm
; infill extrusion width = 0.25mm
; solid infill extrusion width = 0.25mm
; top infill extrusion width = 0.25mm
; first layer extrusion width = 0.30mm

; external perimeters extrusion width = 0.25mm
; perimeters extrusion width = 0.25mm
; infill extrusion width = 0.25mm
; solid infill extrusion width = 0.25mm
; top infill extrusion width = 0.25mm
; first layer extrusion width = 0.30mm

; external perimeters extrusion width = 0.25mm
; perimeters extrusion width = 0.25mm
; infill extrusion width = 0.25mm
; solid infill extrusion width = 0.25mm
; top infill extrusion width = 0.25mm
; first layer extrusion width = 0.30mm

; external perimeters extrusion width = 0.25mm
; perimeters extrusion width = 0.25mm
; infill extrusion width = 0.25mm
; solid infill extrusion width = 0.25mm
; top infill extrusion width = 0.25mm
; first layer extrusion width = 0.30mm

M73 P0 R31
M73 Q0 S31
M201 X1000 Y1000 Z200 E5000 ; sets maximum accelerations, mm/sec^2
M203 X200 Y200 Z12 E120 ; sets maximum feedrates, mm / sec
M204 S1250 T1250 ; sets acceleration (S) and retract acceleration (R), mm/sec^2
M205 X8.00 Y8.00 Z0.40 E4.50 ; sets the jerk limits, mm/sec
M205 S0 T0 ; sets the minimum extruding and travel feed rate, mm/sec
;TYPE:Custom
M862.3 P "MK3S" ; printer model check
M862.1 P0.25 ; nozzle diameter check
M115 U3.12.2 ; tell printer latest fw version
G90 ; use absolute coordinates
M83 ; extruder relative mode
M104 S215 ; set extruder temp
M140 S64 ; set bed temp
M190 S64 ; wait for bed temp
M109 S215 ; wait for extruder temp
G28 W ; home all without mesh bed level
G80 ; mesh bed leveling
G1 Z0.2 F720
G1 Y-3 F1000 ; go outside print area
G92 E0
G1 X60 E8 F700 ; intro line
G1 X100 E12.5 F700 ; intro line
G92 E0
M221 S95

; Don't change E value below. Excessive value can damage the printer.
M907 E430 ; set extruder motor current
G21 ; set units to millimeters
G90 ; use absolute coordinates
M83 ; use relative distances for extrusion

T0
M900 K0.05 ; Filament gcode LA 1.5
M900 K30 ; Filament gcode LA 1.0
M107
;LAYER_CHANGE
;Z:0.2
;HEIGHT:0.2
;BEFORE_LAYER_CHANGE
G92 E0.0
;0.2


G1 E-.8 F2100
G1 Z.15 F720
G1 Z.2
;AFTER_LAYER_CHANGE
;0.2
G1 Z.35
G1 X37.276 Y139.126 F10800
G1 Z.2 F720
G1 E.8 F2100
M204 S500
;TYPE:Skirt/Brim
;WIDTH:0.3
G1 F1200
G1 X38.057 Y138.987 E.01696
G1 X91.057 Y138.987 E1.13294
G1 X92.476 Y139.489 E.03218
G1 X150.938 Y186.784 E1.60744
G1 X151.775 Y188.538 E.04154
G1 X151.775 Y197.038 E.1817
G1 X151.384 Y198.308 E.02841
G1 X150.346 Y199.138 E.02841
G1 X149.589 Y199.294 E.01652
G1 X90.026 Y201.166 E1.27386
G1 X36.955 Y201.167 E1.13446
M73 P1 R31
M73 Q1 S31
G1 X35.685 Y200.776 E.02841
G1 X34.856 Y199.738 E.0284
G1 X34.698 Y198.91 E.01802
G1 X34.698 Y190.41 E.1817
G1 X35.8 Y141.193 E1.05234
G1 X36.22 Y139.933 E.02839
G1 X37.246 Y139.149 E.0276
M204 S1000
; printing object 258 targhetta bicolore 1 grande.stl id:4 copy 0
;WIPE_START
G1 F8640
G1 X38.057 Y138.987 E-.19096
G1 X40.695 Y138.987 E-.60904
;WIPE_END
G1 Z.35 F720
G1 X148.854 Y194.689 F10800
G1 Z.2 F720
G1 E.8 F2100
M204 S500
;TYPE:Perimeter
;WIDTH:0.299999
G1 F1200
G1 X148.854 Y196.374 E.03602
G1 X97.182 Y196.374 E1.10455
G1 X97.182 Y194.627 E.03734
M73 P1 R30
G1 X97.411 Y194.819 E.00639
G1 X98.188 Y194.819 E.01661
G1 X98.516 Y194.729 E.00727
G1 X98.742 Y194.502 E.00685
G1 X99.105 Y193.884 E.01532
G1 X99.105 Y194.176 E.00624
G1 X99.193 Y194.502 E.00722
G1 X99.42 Y194.729 E.00686
G1 X99.748 Y194.819 E.00727
G1 X100.3 Y194.809 E.0118
G1 X100.595 Y194.675 E.00693
G1 X100.791 Y194.402 E.00718
G1 X100.832 Y194.176 E.00491
G1 X100.832 Y192.331 E.03944
G1 X101.609 Y194.402 E.04728
G1 X101.805 Y194.675 E.00718
G1 X102.211 Y194.819 E.00921
G1 X103.073 Y194.809 E.01843
G1 X103.362 Y194.679 E.00677
G1 X103.564 Y194.401 E.00735
G1 X104.305 Y192.417 E.04527
G1 X104.305 Y194.177 E.03762
G1 X104.346 Y194.401 E.00487
G1 X104.547 Y194.679 E.00733
G1 X104.955 Y194.819 E.00922
G1 X106.43 Y194.803 E.03153
G1 X106.917 Y194.72 E.01056
G1 X107.325 Y194.542 E.00952
G1 X107.612 Y194.294 E.00811
G1 X107.757 Y194.049 E.00609
G1 X107.757 Y194.176 E.00271
G1 X107.824 Y194.462 E.00628
G1 X108.039 Y194.708 E.00698
G1 X108.4 Y194.819 E.00807
G1 X110.24 Y194.819 E.03933
G1 X110.554 Y194.737 E.00694
G1 X110.767 Y194.544 E.00614
G1 X110.847 Y194.388 E.00375
G1 X110.883 Y194.176 E.0046
G1 X110.844 Y193.598 E.01238
G1 X110.759 Y193.439 E.00385
G1 X110.506 Y193.234 E.00696
G1 X110.183 Y193.176 E.00701
G1 X110.183 Y192.291 E.01892
G1 X110.506 Y192.234 E.00701
G1 X110.759 Y192.028 E.00697
G1 X110.873 Y191.759 E.00625
G1 X110.875 Y191.194 E.01208
G1 X110.75 Y190.9 E.00683
G1 X110.539 Y190.722 E.0059
G1 X110.24 Y190.648 E.00658
G1 X108.4 Y190.648 E.03933
G1 X108.049 Y190.753 E.00783
G1 X107.916 Y190.868 E.00376
G1 X107.775 Y191.143 E.00661
G1 X107.523 Y190.95 E.00679
G1 X106.972 Y190.725 E.01272
G1 X106.281 Y190.649 E.01486
G1 X104.948 Y190.648 E.02849
G1 X104.837 Y190.658 E.00238
G1 X104.585 Y190.76 E.00581
G1 X104.494 Y190.933 E.00418
G1 X104.403 Y190.76 E.00418
G1 X104.248 Y190.683 E.0037
G1 X104.04 Y190.648 E.00451
G1 X103.463 Y190.658 E.01234
G1 X103.161 Y190.798 E.00712
G1 X102.972 Y191.066 E.00701
G1 X102.723 Y191.737 E.0153
G1 X102.443 Y191.737 E.00599
G1 X102.193 Y191.069 E.01525
G1 X102.002 Y190.798 E.00709
G1 X101.59 Y190.648 E.00937
G1 X101.017 Y190.658 E.01225
G1 X100.756 Y190.766 E.00604
G1 X100.658 Y190.956 E.00457
G1 X100.56 Y190.766 E.00457
G1 X100.404 Y190.685 E.00376
G1 X100.189 Y190.648 E.00466
G1 X99.412 Y190.648 E.01661
G1 X99.073 Y190.745 E.00754
G1 X98.857 Y190.966 E.00661
G1 X98.499 Y191.577 E.01514
G1 X98.499 Y191.291 E.00611
G1 X98.411 Y190.966 E.0072
G1 X98.195 Y190.745 E.00661
G1 X97.879 Y190.649 E.00706
G1 X97.411 Y190.648 E.01
G1 X97.182 Y190.877 E.00692
G1 X97.182 Y189.202 E.03581
G1 X148.854 Y189.202 E1.10455
G1 X148.854 Y189.977 E.01657
G1 X148.854 Y193.193 E.06875
G1 X148.237 Y192.178 E.02539
G1 X148.188 Y192.135 E.00139
G1 X148.188 Y191.291 E.01804
G1 X148.057 Y190.902 E.00877
G1 X147.787 Y190.695 E.00727
G1 X147.545 Y190.648 E.00527
G1 X146.993 Y190.658 E.0118
G1 X146.722 Y190.774 E.0063
G1 X146.571 Y190.931 E.00466
G1 X146.461 Y191.291 E.00805
G1 X146.461 Y192.033 E.01586
G1 X146.432 Y192.154 E.00266
G1 X145.867 Y193.083 E.02324
G1 X145.943 Y192.636 E.00969
G1 X145.944 Y191.291 E.02875
G1 X145.834 Y190.931 E.00805
G1 X145.684 Y190.774 E.00464
G1 X145.302 Y190.648 E.0086
G1 X144.745 Y190.658 E.01191
G1 X144.549 Y190.742 E.00456
G1 X144.336 Y190.672 E.00479
G1 X143.824 Y190.607 E.01103
G1 X143.371 Y190.635 E.0097
G1 X142.959 Y190.74 E.00909
G1 X142.585 Y190.924 E.00891
G1 X142.28 Y191.17 E.00838
G1 X142.023 Y191.492 E.00881
G1 X141.81 Y191.952 E.01084
G1 X141.648 Y191.645 E.00742
G1 X141.411 Y191.304 E.00888
G1 X141.114 Y191.027 E.00868
G1 X140.715 Y190.791 E.00991
G1 X140.297 Y190.658 E.00938
G1 X139.844 Y190.606 E.00975
G1 X139.399 Y190.635 E.00953
G1 X138.983 Y190.742 E.00918
G1 X138.604 Y190.925 E.009
G1 X138.249 Y191.208 E.0097
G1 X138.158 Y190.949 E.00587
G1 X137.971 Y190.757 E.00573
G1 X137.614 Y190.648 E.00798
G1 X135.905 Y190.648 E.03653
G1 X135.709 Y190.679 E.00424
G1 X135.284 Y190.859 E.00987
G1 X135.114 Y191.066 E.00573
G1 X134.969 Y191.455 E.00887
G1 X134.964 Y191.797 E.00731
G1 X134.874 Y191.612 E.0044
G1 X134.658 Y191.311 E.00792
G1 X134.326 Y191.002 E.0097
G1 X133.956 Y190.791 E.0091
G1 X133.538 Y190.658 E.00938
G1 X133.085 Y190.606 E.00975
G1 X132.64 Y190.635 E.00953
G1 X132.225 Y190.742 E.00916
G1 X131.732 Y191.001 E.0119
G1 X131.346 Y191.378 E.01153
G1 X131.091 Y191.797 E.01048
G1 X131.091 Y191.443 E.00757
G1 X131.048 Y191.06 E.00824
G1 X130.916 Y190.85 E.0053
G1 X130.448 Y190.648 E.0109
G1 X129.671 Y190.648 E.01661
G1 X129.333 Y190.745 E.00752
G1 X129.116 Y190.966 E.00662
G1 X128.759 Y191.577 E.01513
G1 X128.759 Y191.291 E.00611
G1 X128.671 Y190.966 E.0072
G1 X128.454 Y190.745 E.00662
G1 X128.116 Y190.648 E.00752
G1 X127.559 Y190.658 E.01191
G1 X127.246 Y190.808 E.00742
G1 X127.096 Y191.139 E.00777
G1 X126.947 Y190.808 E.00776
G1 X126.781 Y190.703 E.0042
G1 X126.523 Y190.648 E.00564
G1 X126.077 Y190.648 E.00953
G1 X125.706 Y190.766 E.00832
G1 X125.552 Y190.92 E.00466
;WIDTH:0.348449
G1 X125.469 Y191.105 E.00515
;WIDTH:0.396898
G1 X125.386 Y191.291 E.00599
G1 X125.386 Y191.842 E.01622
G1 X125.032 Y191.842 E.01042
G1 X125.032 Y191.291 E.01622
G1 X124.949 Y191.105 E.00599
;WIDTH:0.348449
M73 Q2 S31
G1 X124.865 Y190.92 E.00516
;WIDTH:0.299999
G1 X124.712 Y190.766 E.00464
G1 X124.341 Y190.648 E.00832
G1 X123.784 Y190.658 E.01191
G1 X123.421 Y190.857 E.00885
G1 X123.29 Y191.073 E.0054
G1 X123.252 Y191.698 E.01338
G1 X123.154 Y191.516 E.00442
G1 X122.745 Y191.046 E.01332
G1 X122.488 Y190.9 E.00632
G1 X122.01 Y190.69 E.01116
G1 X121.454 Y190.61 E.01201
G1 X120.973 Y190.635 E.0103
G1 X120.556 Y190.742 E.0092
G1 X120.177 Y190.925 E.009
G1 X119.848 Y191.18 E.0089
G1 X119.633 Y191.433 E.0071
G1 X119.606 Y191.107 E.00699
G1 X119.43 Y190.822 E.00716
G1 X118.99 Y190.648 E.01011
G1 X116.667 Y190.658 E.04966
G1 X116.355 Y190.807 E.00739
M73 P2 R30
G1 X116.22 Y190.972 E.00456
G1 X116.136 Y191.291 E.00705
G1 X116.136 Y193.513 E.0475
G1 X115.799 Y193.176 E.01019
G1 X115.37 Y193.176 E.00917
G1 X115.37 Y191.291 E.04029
G1 X115.286 Y190.972 E.00705
G1 X115.151 Y190.807 E.00456
G1 X114.728 Y190.648 E.00966
G1 X114.282 Y190.648 E.00953
G1 X113.983 Y190.722 E.00658
G1 X113.772 Y190.9 E.0059
G1 X113.667 Y191.103 E.00489
G1 X113.639 Y191.291 E.00406
G1 X113.639 Y193.176 E.04029
G1 X113.207 Y193.176 E.00923
G1 X112.903 Y193.252 E.0067
G1 X112.791 Y193.329 E.00291
G1 X112.603 Y193.598 E.00702
G1 X112.564 Y193.819 E.0048
G1 X112.566 Y194.232 E.00883
G1 X112.679 Y194.544 E.00709
G1 X112.892 Y194.737 E.00614
G1 X113.207 Y194.819 E.00696
G1 X115.91 Y194.809 E.05778
G1 X116.171 Y194.7 E.00605
G1 X116.289 Y194.495 E.00506
G1 X116.406 Y194.7 E.00505
G1 X116.563 Y194.782 E.00379
G1 X116.778 Y194.819 E.00466
G1 X119.101 Y194.809 E.04966
G1 X119.43 Y194.645 E.00786
G1 X119.606 Y194.361 E.00714
G1 X119.633 Y194.035 E.00699
G1 X119.719 Y194.146 E.003
G1 X120.063 Y194.467 E.01006
G1 X120.556 Y194.726 E.0119
G1 X121.019 Y194.834 E.01016
G1 X121.646 Y194.843 E.0134
G1 X121.848 Y194.813 E.00437
G1 X122.346 Y194.656 E.01116
G1 X122.557 Y194.543 E.00512
G1 X123.051 Y194.113 E.014
G1 X123.252 Y193.746 E.00894
G1 X123.277 Y194.353 E.01299
G1 X123.42 Y194.609 E.00627
G1 X123.501 Y194.684 E.00236
G1 X123.895 Y194.819 E.0089
G1 X124.341 Y194.819 E.00953
G1 X124.7 Y194.709 E.00803
G1 X124.857 Y194.559 E.00464
;WIDTH:0.348448
G1 X124.944 Y194.368 E.00533
;WIDTH:0.396896
G1 X125.032 Y194.176 E.00622
G1 X125.032 Y193.585 E.0174
G1 X125.386 Y193.585 E.01042
G1 X125.386 Y194.176 E.0174
G1 X125.473 Y194.368 E.0062
;WIDTH:0.348448
G1 X125.561 Y194.559 E.00534
;WIDTH:0.299999
G1 X125.718 Y194.709 E.00464
G1 X126.077 Y194.819 E.00803
G1 X126.634 Y194.809 E.01191
G1 X126.937 Y194.668 E.00714
G1 X127.096 Y194.36 E.00741
G1 X127.256 Y194.668 E.00742
G1 X127.421 Y194.769 E.00414
G1 X127.67 Y194.819 E.00543
G1 X128.448 Y194.819 E.01663
G1 X128.776 Y194.729 E.00727
G1 X129.002 Y194.502 E.00685
G1 X129.364 Y193.884 E.01531
G1 X129.364 Y194.176 E.00624
G1 X129.453 Y194.502 E.00722
G1 X129.679 Y194.729 E.00685
G1 X130.007 Y194.819 E.00727
G1 X130.559 Y194.809 E.0118
G1 X130.853 Y194.675 E.00691
G1 X131.048 Y194.408 E.00707
G1 X131.091 Y194.176 E.00504
G1 X131.091 Y193.672 E.01077
G1 X131.345 Y194.089 E.01044
G1 X131.732 Y194.466 E.01155
G1 X132.102 Y194.677 E.0091
G1 X132.52 Y194.81 E.00938
G1 X132.973 Y194.861 E.00974
G1 X133.418 Y194.832 E.00953
G1 X133.833 Y194.725 E.00916
G1 X134.326 Y194.465 E.01191
G1 X134.71 Y194.089 E.01149
G1 X134.963 Y193.673 E.01041
G1 X134.963 Y194.023 E.00748
G1 X135.006 Y194.407 E.00826
G1 X135.181 Y194.658 E.00654
G1 X135.606 Y194.819 E.00971
G1 X136.051 Y194.819 E.00951
G1 X136.368 Y194.736 E.007
G1 X136.619 Y194.478 E.00769
G1 X136.694 Y194.176 E.00665
G1 X136.694 Y192.291 E.04029
G1 X137.693 Y192.285 E.02136
G1 X137.652 Y192.682 E.00853
G1 X137.677 Y193.095 E.00884
G1 X137.773 Y193.489 E.00867
G1 X137.941 Y193.858 E.00867
G1 X138.181 Y194.189 E.00874
G1 X138.491 Y194.466 E.00889
G1 X138.861 Y194.677 E.0091
G1 X139.279 Y194.81 E.00938
G1 X139.731 Y194.861 E.00972
G1 X140.176 Y194.832 E.00953
G1 X140.592 Y194.725 E.00918
G1 X140.97 Y194.542 E.00898
G1 X141.298 Y194.286 E.00889
G1 X141.632 Y193.857 E.01162
G1 X141.808 Y193.452 E.00944
G1 X141.866 Y193.61 E.0036
G1 X142.07 Y193.996 E.00933
G1 X142.37 Y194.341 E.00977
G1 X142.723 Y194.592 E.00926
G1 X143.125 Y194.76 E.00931
G1 X143.711 Y194.855 E.01269
G1 X144.477 Y194.779 E.01645
G1 X144.952 Y194.593 E.0109
G1 X145.344 Y194.275 E.01079
G1 X145.437 Y194.557 E.00635
G1 X145.598 Y194.711 E.00476
G1 X145.954 Y194.819 E.00795
G1 X146.43 Y194.819 E.01018
G1 X146.798 Y194.703 E.00825
G1 X146.982 Y194.504 E.00579
G1 X147.325 Y193.928 E.01433
G1 X147.667 Y194.504 E.01432
G1 X147.851 Y194.703 E.00579
G1 X148.153 Y194.816 E.00689
G1 X148.7 Y194.819 E.01169
G1 X148.825 Y194.714 E.00349
M204 S1000
G1 X149.096 Y194.288 F10800
M204 S500
;WIDTH:0.331768
G1 F1200
G1 X149.111 Y194.973 E.01646
;WIDTH:0.299999
G1 X149.111 Y196.631 E.03544
G1 X96.925 Y196.631 E1.11554
G1 X96.925 Y195.048 E.03384
;WIDTH:0.335581
G1 X96.943 Y194.782 E.00649
;WIDTH:0.371163
G1 X96.961 Y194.517 E.00725
;WIDTH:0.406744
G1 X96.978 Y194.252 E.00803
G1 X97.123 Y194.355 E.00538
;WIDTH:0.371163
G1 X97.267 Y194.459 E.00485
;WIDTH:0.335581
G1 X97.411 Y194.562 E.00431
;WIDTH:0.299999
G1 X98.188 Y194.562 E.01661
G1 X98.385 Y194.508 E.00437
G1 X98.521 Y194.372 E.00411
G1 X99.362 Y192.939 E.03552
G1 X99.362 Y194.176 E.02644
G1 X99.415 Y194.372 E.00434
G1 X99.493 Y194.466 E.00261
G1 X99.748 Y194.562 E.00582
G1 X100.256 Y194.556 E.01086
G1 X100.49 Y194.417 E.00582
G1 X100.575 Y194.176 E.00546
G1 X100.561 Y191.461 E.05804
;WIDTH:0.273585
G1 X100.552 Y191.291 E.00327
;WIDTH:0.299999
G1 X100.412 Y190.976 E.00737
G1 X100.189 Y190.905 E.005
G1 X99.412 Y190.905 E.01661
G1 X99.208 Y190.963 E.00453
G1 X99.079 Y191.096 E.00396
G1 X98.242 Y192.525 E.0354
G1 X98.242 Y191.291 E.02638
G1 X98.189 Y191.096 E.00432
G1 X98.116 Y191.006 E.00248
G1 X97.87 Y190.905 E.00568
G1 X97.411 Y190.905 E.00981
;WIDTH:0.333379
G1 X97.266 Y191.034 E.00469
;WIDTH:0.366759
M73 Q2 S30
G1 X97.12 Y191.162 E.00523
;WIDTH:0.400138
G1 X96.975 Y191.291 E.00576
G1 X96.958 Y191 E.00866
;WIDTH:0.366759
G1 X96.942 Y190.71 E.00782
;WIDTH:0.333379
G1 X96.925 Y190.419 E.00704
;WIDTH:0.299999
G1 X96.925 Y188.945 E.03151
G1 X149.111 Y188.945 E1.11554
